!!!!SEGMENT: pl-wtm--r-1423--002_stefani-jozef--les-amours-du-village-no-2.krn
!!!cenid: 18xx:2432
!!!COM: Stefani, Józef
!!!COM-rismID: pe30024097
!!!CDT: 1800/04/16-1876/03/19
!!!CNT: Polish
!!!GTL: Les Amours du Village
!!!OTL: No. 2
!!!PDT:
!!!AGN: Secular
!!!SMS-siglum: PL-Wtm
!!!SMS-shelfmark: R 1423
!!!SMS-shelfwork: 002 G
!!!SMS-variant:
!!!SMS-altvar:
!!!NIFC-rismSourceID: 1001116122
!!!NIFC-islandoraID: pl-wtm:25544
!!!URL-pdf-islandora: https://repozytorium.nifc.pl/islandora/object/pl-wtm%3A25544/datastream/PDF/view
!!!URL-scan: https://polish.musicsources.pl/pl/lokalizacje/galeria/rekopisy/6245 @EN{Scan on Polish Music Sources Website} @PL{Skany w portalu Dziedzictwo Muzyki Polskiej w otwartym dostępie}
!!!ONB-nifc: UWAGA: części: 1. No. 1 (Allegretto), 2. No. 2 (Moderato), 3. No. 3 (Allegretto),
!!!OMD: No 2. Moderato.
!!!AIN: 2 piano
!!!key:
**kern	**kern	**dynam
*part2	*part1	*part1
*staff2	*staff1	*
*Ipiano	*Ipiano	*
*I"Piano	*I"Piano	*
*clefG2	*clefG2	*
*k[b-e-a-]	*k[b-e-a-]	*
*E-:	*E-:	*
*M2/4	*M2/4	*
=1	=1	=1
!	!LO:TX:b:i:t=Jakóbek wychodzi z domu	!
4a- 4B-/	4ff 4b-\	.
8r	8r	.
!LO:TUP:b:problem=klamra łukowa	!LO:TUP:b:problem=klamra łukowa	!
24B-/LL	24B-/LL	.
24c/	24c/	.
24d/JJ	24d/JJ	.
=2	=2	=2
8e-/L	8e-/L	.
8g 8B-/	8e-'/	p
8g 8B-/	8e-'/	.
8gJ 8B-/	8e-'/J	.
=3	=3	=3
*tremolo	*	*
8gL 8B-/	8e-/L	.
8g 8B-/	8e-/J	.
!	!LO:TX:a:i:t=Entré de J.	!
8g 8B-/	16e-/	.
.	16g'/LL	.
8gJ 8B-/	16a-'/	.
.	16an'/JJ	.
=4	=4	=4
*rep	*	*
8gL 8B-/	8b-\L	.
8g 8B-/	8.b-^\J	.
8g 8B-/	.	.
.	16ee-'\LL	.
8gJ 8B-/	16ff'\	.
.	16gg'\JJ	.
*Xrep	*	*
=5	=5	=5
8a-L 8c/	8gg\L	.
8a- 8c/	8.cc^\J	.
8a- 8c/	.	.
.	16cc\LL	.
8a-J 8c/	16ff\	.
.	16ee-\JJ	.
!!LO:LB:g=original
=6	=6	=6
8a-L 8B-/	8dd'\L	.
8a- 8B-/	8cc'\	.
8a- 8B-/	8b-'\	.
8a-J 8B-/	8a-'\J	.
*Xtremolo	*	*
=7	=7	=7
*	*	*^
!	!	!LO:DY:b=2:rj	!LO:DY:rj
8gL 8B-^/	16g^/LL	f	f
.	16cc^/J	.	.
8g 8B-^/	8b-^/J	.	.
!	!	!LO:DY:b=2:rj	!
8g 8B-/	16r	p	.
!	!	!	!LO:DY:rj
.	16g/LL	.	p
8gJ 8B-/	16a-/	.	.
.	16an/JJ	.	.
*	*	*v	*v
=8	=8	=8
8gL 8B-/	8b-/L	.
8g 8B-^>/	8.b-^/J	.
8g 8B-/	.	.
.	16ee-'\LL	.
8gJ 8B-/	16ff'\	.
.	16gg'\JJ	.
=9	=9	=9
8a-L 8c/	16gg\	.
.	16r	.
8a-J 8c^>/	8.cc\	.
8a-L 8c/	.	.
.	16cc'\LL	.
8a-J 8c/	16ff'\	.
.	16ee-'\JJ	.
=10	=10	=10
*tremolo	*	*
8a-L 8B-/	8.dd\L	.
8a- 8B-/	.	.
.	16cc\Jk	.
8a- 8B-/	16b-/LL	.
.	16a-/	.
8a-J 8B-/	16g/	.
.	16f/JJ	.
*Xtremolo	*	*
!!LO:LB:g=original
=11	=11	=11
!	!LO:TX:b:i:t=Jakóbek usłuszawszy szelest\nz przybycia colina odwraca się	!
8gL 8B-/	8e-/L	.
!	!	!LO:DY:rj
8gJ 8B-/	8ee-J 8e-^/	ff
4r	8r	.
!	!	!LO:DY:rj
.	16ee-'\LL	p
.	16ee-'\JJ	.
=12	=12	=12
8r	4an/	.
8e-L 8c/	.	.
8e-J 8c/	8r	.
8r	16ff'\LL	.
.	16ff'\JJ	.
=13	=13	=13
8r	4b-\	.
8dL 8B-/	.	.
8dJ 8B-/	8r	.
8r	16ff\LL	.
.	16ff\JJ	.
=14	=14	=14
*tremolo	*	*
8e-L 8c/	8.aan\L	>
8e- 8c/	.	.
.	16gg\Jk	]
8e- 8c/	16ff\LL	.
.	16ee-\	.
8e-J 8c/	16dd\	.
*Xtremolo	*	*
.	16cc\JJ	.
=15	=15	=15
!	!	!LO:DY:rj
16dLL 16B-/	16b-'^<\LL	f
16dJ 16B-/	16dd'^<\J	.
8dJ 8B-/	8ff'^<\J	.
4r	16r	.
.	16ff\LL	p
.	16ff\	.
.	16ff\JJ	.
!!LO:LB:g=original
=16	=16	=16
8r	8an/L	.
8e-L 8c/	8a/J	.
8e-J 8c/	16r	.
.	16ff'\LL	.
8r	16ff'\	.
.	16ff'\JJ	.
=17	=17	=17
8r	8b-\L	.
8dL 8B-/	8b-\J	.
8dJ 8B-/	16r	.
.	16ff\LL	.
8r	16ff\	.
.	16ff\JJ	.
=18	=18	=18
*tremolo	*	*
8e-L 8c/	8.aan\L	>
8e- 8c/	.	.
.	16gg\Jk	]
8e- 8c/	16ff\LL	.
.	16ee-\	.
8e-J 8c/	16dd\	.
.	16cc\JJ	.
*Xtremolo	*	*
=19	=19	=19
4d 4B-/	4b-\	.
4r	16r	.
.	16g/LL	.
.	16a-/	.
.	16an/JJ	.
=20	=20	=20
*tremolo	*	*
!LO:TX:a:t=....:problem=akcent nad drugą kropką	!	!
8gL 8B-'>/	8b-\L	.
8g 8B-'>^/	8.b-^\J	.
8g 8B-'>/	.	.
.	16ee-'\LL	.
8gJ 8B-'>/	16ff'\	.
.	16gg'\JJ	.
!!LO:LB:g=original
=21	=21	=21
!LO:TX:a:t=....:problem=akcent nad drugą kropką	!	!
8a-L 8c'>/	16gg\	.
.	16r	.
8a- 8c'>^/	8.cc^\	.
8a- 8c'>/	.	.
.	16cc\LL	.
8a-J 8c'>/	16ff\	.
.	16ee-\JJ	.
=22	=22	=22
!	!LO:TUP:a:problem=klamra łukowa	!
8a-L 8B-/	24dd\LL	.
.	24ee-\	.
.	24dd\J	.
8a- 8B-/	8cc'\J	.
!	!LO:TUP:b:problem=klamra łukowa	!
8a- 8B-/	24b-/LL	.
.	24cc/	.
.	24b-/J	.
8a-J 8B-/	8a-'/J	.
*Xtremolo	*	*
=23	=23	=23
!	!	!LO:DY:rj
8gL 8B-^>/	16g'/LL	f
.	16cc'/J	.
8gJ 8B-^>/	8b-'/J	.
8gL 8B-/	16r	.
.	16g'/LL	.
8gJ 8B-/	16a-'/	.
.	16an'/JJ	.
=24	=24	=24
*tremolo	*	*
8gL 8B-/	8b-\L	.
8g 8B-/	8.b-^\J	.
8g 8B-/	.	.
.	16ee-\LL	.
8gJ 8B-/	16ff\	.
.	16gg\JJ	.
=25	=25	=25
8a-L 8c/	8gg\L	.
8a- 8c/	8cc^<\	.
8a- 8c/	8.ff\	.
8a-J 8c/	.	.
.	16ee-\Jk	.
!!LO:LB:g=original
=26	=26	=26
8a-L 8B-/	(16ee-\LL	.
.	16dd\)	.
8a- 8B-/	(16dd\	.
.	16cc\JJ)	.
8a- 8B-/	(16cc\LL	.
.	16b-\)	.
8a-J 8B-/	16aa-\	.
.	16dd\JJ	.
*Xtremolo	*	*
=27	=27	=27
4g 4B-/	4ee-\	.
!	!LO:TX:a:i:t=/&colon; Jakóbek puka do drzwi	!
8.r	8.r	.
!	!	!LO:DY:rj
16g 16G/	16g 16G/	f
=28	=28	=28
4g 4G/	4g 4G/	.
4g 4G/	8.ee-\L	.
.	16cc\Jk	.
=29	=29	=29
4g 4G/	4bn/	.
4r	8r	.
.	(8qff#X/	.
.	8gg^<\)	.
=30	=30	=30
!	!	!LO:DY:rj
(16f/LL	(4.g/	p
16g/	.	.
16f/	.	.
16e-/JJ	.	.
16d/LL	.	.
16f/	.	.
16e-/	16an/LL	.
16d/JJ)	16bn/JJ)	.
!!LO:PB:g=original
=31	=31	=31
!	!LO:TX:a:i:t=powtarza pukanie	!
4e-/	4cc\	.
8.r	8.r	.
!	!	!LO:DY:rj
16f/	16ff 16f\	f
=32	=32	=32
4f/	4ff 4f\	.
4f/	(8.ee-\L	.
.	16cc\Jk)	.
=33	=33	=33
4f 4B-/	4dd\	.
4r	8r	.
.	(8qeen/	.
.	8ff\)	.
=34	=34	=34
!	!	!LO:DY:rj
(16e-/LL	(4.f/	p
16f/	.	.
16e-/	.	.
16d/JJ	.	.
16c/LL	.	.
16e-/	.	.
16d/	16g/LL	.
16c/JJ)	16an/JJ)	.
=35	=35	=35
4d/	4b-/	.
8.r	8.r	.
16bn/|	16bn/|	.
!!LO:LB:g=original
=36	=36	=36
!LO:TX:t=//	!	!
8cc\|yy	8cc\|	.
8ryy	8r	.
8a-X/|yy	8a-X/|	.
8ryy	8r	.
=37	=37	=37
4f/|yy	4f/|	.
8.ryy	8.r	.
16g/|yy	16g/|	.
=38	=38	=38
8a-/|yy	8a-/|	.
8ryy	8r	.
8f/|yy	8f/|	.
8ryy	8r	.
=39	=39	=39
8d/|yy	8d/|	.
8ryy	8r	.
4ryy	4r	.
=40	=40	=40
!	!	!LO:DY:rj
8dd 8f 8B-/	8bb- 8b- 8d\	f
8r	8r	.
4r;	4r;	.
!!LO:LB:g=original
=41||	=41||	=41||
!!!OMD: Andantino.
*M2/4	*M2/4	*
!	!LO:TX:a:i:t=/&colon;Łucya ukazuie się na ganku &colon;/	!LO:DY:rj
4g/	4b-\	p
.	(8qqdd/	.
4a-/	4cc\)	.
=42	=42	=42
2g/	(4b-\	.
.	4ee-\)	.
=43	=43	=43
4f/	(4dd\	.
4g/	4ee-\)	.
=44	=44	=44
2a-/	(4ff\	.
.	4b-\)	.
=45	=45	=45
2g/	(4ee-\	.
.	4b-\)	.
=46	=46	=46
4e-/	(4g/	.
4g/	4e-/)	.
=47	=47	=47
2d 2B-/	(4a-/	.
.	4f/)	.
!!LO:LB:g=original
=48	=48	=48
!	!LO:TX:a:i:t=/&colon; Colin pokazuie się za beczek &colon;/	!
8e- 8G/	(16e-/LL	.
.	16f/	.
8r	16g/	.
.	16f/JJ)	.
4r	8e-'/L	.
.	8b-'/J	.
=49	=49	=49
8e- 8G/	8g'/L	.
8r	8ee-'/J	.
!	!	!LO:DY:a
4r	[4b-\	sf
=50	=50	=50
8r	8b-/L]	.
(4d/	8a-/	.
.	8f'/	.
8en/	8g'/J	.
=51	=51	=51
4f/)	8b-/L	.
.	8a-/J	.
4d/	4f/	sfz
=52	=52	=52
!	!LO:TX:b:i:t=/&colon; Łucya spostrzega Kolina &colon;/	!
8e- 8G/	(16e-/LL	.
.	16f/	.
8r	16g/	.
.	16f/JJ)	.
4r	8e-'/L	.
.	8b-'/J	.
=53	=53	=53
*rep	*	*
8e- 8G/	8g'/L	.
8r	8ee-'/J	.
4r	[>4b-/	.
*Xrep	*	*
!!LO:LB:g=original
=54	=54	=54
8r	(>8b-/L]	.
4d/	8a-/)	.
.	8f'/	.
8en/	8g'/J	.
=55	=55	=55
(4f/	8.b-/L	.
.	16a-/Jk	.
4d/)	4f/	.
=56	=56	=56
8d 8Bn^>/	(16g/LL	fp
.	16an/	.
8r	16bn/	.
.	16a/JJ)	.
4r	8g'/L	.
.	8dd'/J	.
=57	=57	=57
8r	8bn'\L	.
8d/	8ff'\J	.
4f/	4dd\	sfz
=58	=58	=58
8c/L	(16cc\LL	.
.	16dd\	.
8e- 8G/	16ee-\	.
.	16dd\JJ)	.
8e- 8G/	8cc'\L	.
8e-J 8G/	8ee-'\J	.
=59	=59	=59
*rep	*	*
8c/L	8cc'\L	.
8e- 8G/	8gg'\J	.
!	!	!LO:HP:t=cresc
8e- 8G/	4ee-'\	<
8e-J 8G/	.	.
*Xrep	*	*
=60	=60	=60
8e-/L	(16cc\LL	.
.	16dd\	.
8g 8G/	16ee-\	.
.	16dd\JJ)	.
8g 8G/	8cc\L	.
8gJ 8G/	8ee-\J	.
!!LO:LB:g=original
=61	=61	=61
8e-/	8cc\L	.
*tremolo	*	*
8gL 8c/	8ccc\J	.
8g 8c/	4gg\	.
8gJ 8c/	.	.
*Xtremolo	*	*
=62||	=62||	=62||
!!!OMD: uno poco All.°.
8.r	8.r	.
!	!LO:TX:b:i:t=/&colon; Łucya zamyka balkon &colon;/	!LO:DY:rj
16cc#X 16e-X/	16gg 16g\	f
8.cc#L 8.e-/	8.ggL 8.g\	.
16cc#Jk 16e-/	16ggJk 16g\	.
=63	=63	=63
8.cc#XL 8.e-/	8.ggL 8.g\	.
16cc#Jk 16e-/	16ggJk 16g\	.
*rep	*rep	*
8.cc#L 8.e-/	8.ggL 8.g\	.
16cc#Jk 16e-/	16ggJk 16g\	.
*Xrep	*Xrep	*
=64	=64	=64
16ddLL 16d/	16ff#XLL 16an\	.
(16d/	(16dd\	.
16en/	16een\	.
16f#X/JJ	16ff#\JJ	.
16g/LL	16gg\LL	.
16an/	16aan\	.
16bn/	16bbn\	.
16cc#X/JJ)	16ccc#X\JJ)	.
=65	=65	=65
4dd\	4ddd\	.
8r	8r	.
!	!LO:TX:b:i:t=/&colon; Jakóbek uradowany\nże Łucya ma zeyść do niego &colon;/	!LO:DY:rj
8f#X/	8aan\	p
=66	=66	=66
(8qa/	(8qccc/	.
8g/L)	8bb-\L)	.
8f#X'/	8aan'\	.
8g'/	8bb-'\	.
8b-'/J	8ddd'\J	.
=67	=67	=67
!LO:TX:t=P:problem=mixed beam	!	!
16dd\LL	16aan\LL	.
(16d/	(16dd\	.
16en/	16een\	.
16f#X/JJ	16ff#X\JJ	.
16g/LL	16gg\LL	.
16an/	16aan\	.
16bn/	16bbn\	.
!LO:TX:a:t=V&colon; S&colon;	!	!
16cc#X/JJ)	16ccc#X\JJ)	.
!!LO:PB:g=original
=68	=68	=68
4dd\	4ddd\	.
8r	8r	.
8f#'/	8aan'\	p
=69	=69	=69
(8qan/	(8qccc/	.
8g/L)	8bb-\L)	.
8f#X'/	8aan'\	.
8g'/	8bb-'\	.
8b-'/J	8ddd'\J	.
=70	=70	=70
4dd\	4aan\	.
8r	8r	.
(16f#X/LL	(16ff#X\LL	.
16an/JJ)	16aa\JJ)	.
=71	=71	=71
4d/	4dd\	.
8r	8r	.
!LO:TUP:b:problem=klamra łukowa	!LO:TUP:a:problem=klamra łukowa	!
24f#X/LL	24ff#X\LL	.
24an/	24aan\	.
24cc/JJ	24ccc\JJ	.
=72	=72	=72
*	*2\right	*
!	!	!LO:DY:rj
2cc 2d;/	2ff#X 2an;\	f
==	==	==
*-	*-	*-
!!!system-decoration: {(s1,s2)}
!!!RDF**kern: > = above
!!!RDF**kern: < = below
!!!RDF**kern: | = vertical stroke
!!!ENC: Marta Lawrence
!!!END: 2021-06-24
!!!ENC: Marcin Jachim
!!!END: 2021-06-18
